X: 21889
T: Kiss The Maid Behind The Barrel
R: reel
M: 4/4
K: Gmajor
DG ~G2 AG ~G2|DG ~G2 cAGF|DG ~G2 AG (A/B/c)|defd cAGF|
DG ~G2 AG ~G2|DG ~G2 cAFD|B4 c2 (A/B/c)|defd cAFA||
dgfg agfg|dgfg agfe|df ~f2 affe|defd cAFA|
dg ~g2 bgfg|abag ({e}f3) g|afge fgeg|d2 eg fdcA|:
~G2 dG EGdG|~G2 dG cAFD|~G2 dG DG (A/B/c)|defd cAFA:|
g2 bg agab|gabg defa|g2 bg agbg|defd cAFA|
g2 bg agab|gabg defg|abag ({e}f3) e|d2 ed cAFA||
(B/c/d) BG (A/B/c) AF|(G2 ~G2) cAFA|BdBG A2 (A/B/c)|defd cAFA|
BdBG AF ~F2|GBdB cAFA|(B2 ~B2) cA ~A2|defd cAFA||
GdAG G3 D|G2 Bd cAFA|GdAG G2 (A/B/c)|defd cAFA|
GdAG GD .D/.D/.D|GABd cAFD|(E/F/G) AB c2 (A/B/c)|defd cAGF||

